icons/clock-filled.svg

<svg xmlns="http://www.w3.org/2000/svg" width="24" height="24" viewBox="0 0 24 24">
    <path fill="#3A3A47" fill-rule="evenodd" d="M12 2c5.514 0 10 4.486 10 10s-4.486 10-10 10S2 17.514 2 12 6.486 2 12 2zm0 4.5c-.667 0-1 .333-1 1v4.158c.002.33.042.585.119.767.076.182.237.403.483.663l1.962 1.918c.504.452.98.446 1.427-.019.448-.464.454-.91.02-1.336L13 11.655V7.5c0-.667-.333-1-1-1z"/>
</svg>

<svg width="24" height="24" viewBox="0 0 24 24" fill="none" xmlns="http://www.w3.org/2000/svg">
<path d="M12 2C17.514 2 22 6.486 22 12C22 17.514 17.514 22 12 22C6.486 22 2 17.514 2 12C2 6.486 6.486 2 12 2ZM11 7.5V11.658C11.002 11.988 11.042 12.243 11.119 12.425C11.195 12.607 11.356 12.828 11.602 13.088L13.564 15.006C14.068 15.458 14.544 15.452 14.991 14.987C15.439 14.523 15.445 14.077 15.011 13.651L13 11.655V7.5C13 6.833 12.667 6.5 12 6.5C11.333 6.5 11 6.833 11 7.5Z" fill="#3A3A47"/>
</svg>
